azure-icons/command-1013-Calendar.svg

<svg xmlns="http://www.w3.org/2000/svg" viewBox="0 0 16 15"><path d="M16 1v14H0V1h3V0h1v1h8V0h1v1zM1 2v2h14V2h-2v1h-1V2H4v1H3V2zm14 12V5H1v9zM3 8h1v1H3zm0 2h1v1H3zm0 2h1v1H3zm3-6h1v1H6zm0 2h1v1H6zm0 2h1v1H6zm0 2h1v1H6zm3-6h1v1H9zm0 2h1v1H9zm0 2h1v1H9zm0 2h1v1H9zm3-6h1v1h-1zm0 2h1v1h-1zm0 2h1v1h-1z"/></svg>

<svg xmlns="http://www.w3.org/2000/svg" viewBox="0 0 16 15"><title>Asset 6</title><path d="M16,1V15H0V1H3V0H4V1h8V0h1V1ZM1,2V4H15V2H13V3H12V2H4V3H3V2ZM15,14V5H1v9ZM3,8H4V9H3Zm0,2H4v1H3Zm0,2H4v1H3ZM6,6H7V7H6ZM6,8H7V9H6Zm0,2H7v1H6Zm0,2H7v1H6ZM9,6h1V7H9ZM9,8h1V9H9Zm0,2h1v1H9Zm0,2h1v1H9Zm3-6h1V7H12Zm0,2h1V9H12Zm0,2h1v1H12Z"/></svg>
